X:214
T:Murphy's Reel  
T:Mulvihill's, The Muckross
B:CRE2.203 (Ril Ui Mhurchu)
C:Charlie Mulvihill
F:file ID: cre.2/214murph
M:C
R:reel
Q:180
K:D
dB|AFF2 G2 (3EFG|ADFD EGFE|D2FA dfec|dBAF E2dB|
AFF2 G2 (3EFG|ADFD EGFE|D2FA dfec|dBAF D2:|
de|f2fa g2fg|afdf eBB2|f2fe dfec|dBAF E2fg|
aff2 bff2|afef dBB2|f2fe dfec|dBAF D2:|

%%%

